packages/icons/src/emoji/svg/avocado.svg

<svg width="120" height="120" viewBox="0 0 120 120" fill="none" xmlns="http://www.w3.org/2000/svg">
<g clip-path="url(#clip0_212_569)">
<path d="M39.937 28.7063L39.4308 29.2407C37.7796 30.8258 36.1999 32.4837 34.6964 34.2095C34.5745 34.3407 34.4151 34.5282 34.2651 34.697C30.4214 38.8032 26.6526 42.9657 22.9495 47.1845C17.8026 52.8751 9.06515 58.8657 6.7214 61.8376C4.3214 64.8845 2.69015 68.0251 1.71515 71.1376C1.53702 71.7001 1.37765 72.2626 1.2464 72.8157C1.19015 73.022 1.1339 73.2376 1.08702 73.4438C0.290147 76.9876 0.487022 80.4282 1.55577 83.5782C1.6589 83.8876 1.74327 84.197 1.86515 84.497C1.97765 84.797 2.12765 85.0876 2.2589 85.3782C3.6089 88.4157 5.80265 91.0688 8.79327 93.1313C8.9714 93.2532 9.1589 93.3657 9.3464 93.4876C9.82452 93.8063 10.3214 94.1063 10.8276 94.4063C13.6589 96.0282 16.987 97.2282 20.8214 97.8282C24.5526 98.4188 35.9245 99.1313 43.5652 99.8063C49.1526 100.397 81.937 98.1938 88.012 95.8126C99.787 91.1907 109.528 84.8626 114.131 73.4626C115.012 71.2876 115.696 69.1501 116.25 67.0313C116.428 66.3376 116.578 65.6438 116.728 64.9595C118.443 56.822 117.712 49.0782 114.496 41.7001C111.843 34.1063 107.137 27.9282 100.35 23.1095C99.7777 22.7063 99.1964 22.2938 98.587 21.9095C96.6902 20.6856 94.714 19.5894 92.6714 18.6282C81.5527 13.3876 68.1558 13.3032 56.3714 17.897C50.2776 20.2782 44.6151 23.8782 39.937 28.7063Z" fill="#46681E"/>
<path d="M105.919 41.9719C105.75 41.8032 105.572 41.6438 105.403 41.4844C103.87 39.8724 102.258 38.3362 100.575 36.8813C100.444 36.7688 100.256 36.6094 100.097 36.4688C96.1125 32.7375 92.0625 29.0719 87.9469 25.4719C82.4157 20.4657 74.7563 10.6125 71.8594 8.33441C68.8875 6.00003 65.7938 4.41566 62.7188 3.45941C62.1563 3.28128 61.6032 3.13128 61.0407 3.00003C60.8344 2.94378 60.6188 2.88753 60.4125 2.84066C56.8875 2.06253 53.4469 2.24066 50.2688 3.26253C49.9594 3.36566 49.65 3.44066 49.3407 3.56253C49.0407 3.67503 48.7407 3.81566 48.45 3.93753C45.375 5.24066 42.6563 7.35941 40.5094 10.2563C40.3782 10.425 40.2657 10.6125 40.1344 10.7907C39.7969 11.25 39.4875 11.7282 39.1782 12.225C37.4813 14.9625 36.1782 18.1875 35.4563 21.9C34.7532 25.5188 35.6344 37.8938 34.7344 45.3C33.975 50.7094 33.3188 56.1375 32.7469 61.5657C32.7188 61.7813 32.6907 62.0157 32.6625 62.1938C32.3414 64.3945 32.1286 66.6097 32.025 68.8313C32.0063 69.0657 31.9782 69.3 31.95 69.5438C31.3782 76.05 32.3813 82.4532 34.5844 88.35C38.85 99.7782 47.7188 109.275 58.9782 113.766C61.125 114.619 63.2438 115.294 65.3438 115.838C66.0375 116.016 66.7219 116.166 67.4063 116.306C75.4969 117.994 83.25 117.291 90.7219 114.197C98.3907 111.647 104.709 107.1 109.725 100.528C110.147 99.975 110.569 99.4125 110.972 98.8219C112.249 96.9904 113.405 95.0769 114.431 93.0938C120 82.3313 120.488 69.3469 116.231 57.9188C114.038 52.0125 110.606 46.5188 105.919 41.9719ZM108.769 90.1594C107.862 91.899 106.847 93.5804 105.731 95.1938C105.384 95.7 105.019 96.1782 104.653 96.6657C100.669 101.897 95.8407 105.506 89.9157 107.719L88.5 108.216C88.5 108.216 87.5063 108.619 87.1125 108.769C81.1782 110.981 75.1688 111.403 68.7188 110.063C68.1282 109.941 67.5375 109.809 66.9469 109.659C64.9875 109.153 63.1594 108.563 61.3594 107.841C52.0407 104.128 44.2782 96.0094 40.575 86.1188C38.6063 80.85 37.8469 75.4688 38.3157 70.1063L38.3907 69.3657C38.5032 67.0969 38.7 65.0719 38.9907 63.1125L39.1032 62.2407C39.6642 56.8798 40.3174 51.529 41.0625 46.1907C41.8219 39.9938 41.0157 26.7844 41.7282 23.1188C42.2719 20.325 43.2375 17.7938 44.6063 15.5907C44.8313 15.225 45.0657 14.8688 45.3188 14.5219L45.5532 14.1844C47.0719 12.1407 48.8625 10.7063 50.9532 9.81566L51.3563 9.63753L51.8157 9.46878L52.2375 9.33753C54.3938 8.64378 56.6813 8.55003 59.0344 9.07503L59.4657 9.18753C60 9.30941 60.4032 9.43128 60.8063 9.55316C63.2813 10.3219 65.6719 11.6063 67.9125 13.3594C71.2125 15.9469 81.0469 27.8344 83.6625 30.2063C87.7313 33.7594 91.7626 37.4063 95.7375 41.1282L96.4125 41.7282C97.9032 43.0219 99.3751 44.4282 100.791 45.9L101.288 46.3782C105.347 50.3063 108.3 54.8813 110.259 60.15C113.934 70.0313 113.372 81.2532 108.769 90.1594Z" fill="#AFB42B"/>
<path d="M100.791 45.8907C99.3847 44.4189 97.9035 43.0126 96.4128 41.7189L95.7378 41.1189C91.7762 37.4088 87.7506 33.7676 83.6628 30.197C81.0472 27.8345 71.2222 15.947 67.9128 13.3501C65.6722 11.597 63.2816 10.3126 60.8066 9.54385C60.4035 9.42198 60.0003 9.3001 59.466 9.17823L59.0347 9.06573C56.6816 8.5501 54.3941 8.63448 52.2378 9.32823L51.816 9.45948L51.3566 9.62823L50.9535 9.80635C48.8628 10.697 47.0722 12.122 45.5535 14.1751L45.3191 14.5126C45.0753 14.8595 44.841 15.2157 44.6066 15.5814C43.2378 17.7845 42.2722 20.3157 41.7285 23.1095C41.016 26.7751 41.8222 39.9845 41.0628 46.1814C40.3316 51.3845 39.6753 56.7845 39.1035 62.2313L38.991 63.1032C38.7097 65.0532 38.5128 67.0876 38.391 69.3564L38.316 70.097C37.8472 75.4595 38.6066 80.8407 40.5753 86.1095C44.2691 96.0001 52.041 104.119 61.3597 107.831C63.1597 108.553 64.9878 109.144 66.9472 109.65C67.5472 109.8 68.1378 109.931 68.7191 110.053C75.1597 111.394 81.1785 110.972 87.1128 108.759C87.5066 108.609 88.5003 108.206 88.5003 108.206L89.916 107.709C95.8503 105.497 100.669 101.878 104.653 96.6563C105.019 96.1782 105.385 95.6907 105.732 95.1845C106.894 93.5157 107.888 91.8657 108.769 90.1501C113.382 81.2439 113.935 70.022 110.26 60.122C108.3 54.8532 105.347 50.2876 101.288 46.3501L100.791 45.8907Z" fill="#FFF69F"/>
<path d="M93.8808 68.1845C97.4808 77.8407 92.5683 88.5939 82.912 92.1845C73.2558 95.7751 62.5026 90.872 58.912 81.2157C55.3214 71.5595 61.2558 53.1189 67.762 51.1407C74.4558 49.1157 90.2808 58.5282 93.8808 68.1845Z" fill="#855C52"/>
<path d="M78.6938 60.7124C78.0938 62.8124 82.0313 66.7968 82.6594 72.9374C83.1376 77.578 85.5188 79.678 88.3595 79.0968C91.247 78.5155 92.3532 72.7874 89.1376 67.4155C86.0157 62.1843 79.6876 57.2343 78.6938 60.7124Z" fill="#D7CCC8"/>
</g>
<defs>
<clipPath id="clip0_212_569">
<rect width="120" height="120" fill="white"/>
</clipPath>
</defs>
</svg>

<svg xmlns="http://www.w3.org/2000/svg" fill="none" aria-hidden="true" data-slot="icon" viewBox="0 0 120 120"><g clip-path="url(#a)"><path fill="#46681E" d="m39.937 28.706-.506.535a77 77 0 0 0-4.735 4.968c-.121.132-.28.32-.43.488A527 527 0 0 0 22.95 47.184C17.803 52.876 9.065 58.867 6.72 61.838c-2.4 3.047-4.03 6.187-5.006 9.3a24 24 0 0 0-.469 1.678c-.056.206-.112.422-.159.628-.797 3.544-.6 6.984.469 10.134.103.31.187.619.31.919.112.3.262.59.393.881 1.35 3.038 3.544 5.69 6.534 7.753.178.122.366.235.553.357.479.318.975.618 1.482.918 2.83 1.622 6.159 2.822 9.993 3.422 3.732.59 15.104 1.303 22.744 1.978 5.588.591 38.372-1.612 44.447-3.993 11.775-4.622 21.516-10.95 26.119-22.35a52 52 0 0 0 2.119-6.432c.178-.693.328-1.387.478-2.072 1.715-8.137.984-15.88-2.232-23.259-2.653-7.594-7.359-13.772-14.146-18.59-.572-.404-1.154-.816-1.763-1.2a51 51 0 0 0-5.916-3.282c-11.118-5.24-24.515-5.325-36.3-.731-6.093 2.381-11.756 5.981-16.434 10.81"/><path fill="#AFB42B" d="M105.919 41.972c-.169-.169-.347-.328-.516-.488a68 68 0 0 0-4.828-4.603c-.131-.112-.319-.272-.478-.412a483 483 0 0 0-12.15-10.997c-5.531-5.006-13.19-14.86-16.088-17.138C68.888 6 65.794 4.416 62.72 3.46A22 22 0 0 0 61.04 3a15 15 0 0 0-.628-.16c-3.525-.777-6.966-.6-10.144.423-.31.103-.619.178-.928.3-.3.112-.6.253-.891.375-3.075 1.303-5.794 3.421-7.94 6.318-.132.169-.244.357-.376.535-.337.459-.647.937-.956 1.434-1.697 2.738-3 5.963-3.722 9.675-.703 3.619.178 15.994-.722 23.4a475 475 0 0 0-1.987 16.266c-.028.215-.056.45-.084.628a68 68 0 0 0-.638 6.637c-.019.235-.047.469-.075.713-.572 6.506.431 12.91 2.634 18.806 4.266 11.428 13.135 20.925 24.394 25.416a54 54 0 0 0 6.366 2.072c.694.178 1.378.328 2.062.468 8.09 1.688 15.844.985 23.316-2.109 7.669-2.55 13.987-7.097 19.003-13.669.422-.553.844-1.116 1.247-1.706a51 51 0 0 0 3.459-5.728c5.569-10.763 6.057-23.747 1.8-35.175-2.193-5.906-5.625-11.4-10.312-15.947m2.85 48.187a47 47 0 0 1-3.038 5.035c-.347.506-.712.984-1.078 1.472-3.984 5.231-8.812 8.84-14.737 11.053l-1.416.497s-.994.403-1.388.553c-5.934 2.212-11.943 2.634-18.393 1.294a40 40 0 0 1-1.772-.404 45 45 0 0 1-5.588-1.818c-9.318-3.713-17.08-11.832-20.784-21.722-1.969-5.269-2.728-10.65-2.26-16.013l.076-.74c.112-2.27.309-4.294.6-6.254l.112-.871a470 470 0 0 1 1.96-16.05c.759-6.197-.047-19.407.665-23.072.544-2.794 1.51-5.325 2.878-7.528.225-.366.46-.722.713-1.07l.234-.337c1.519-2.043 3.31-3.478 5.4-4.368l.403-.178.46-.17.421-.13c2.157-.694 4.444-.788 6.797-.263l.432.113c.534.121.937.243 1.34.365 2.475.769 4.866 2.053 7.106 3.806 3.3 2.588 13.135 14.475 15.75 16.847 4.07 3.553 8.1 7.2 12.075 10.922l.675.6a68 68 0 0 1 4.379 4.172l.497.478c4.059 3.928 7.012 8.503 8.971 13.772 3.675 9.881 3.113 21.103-1.49 30.01"/><path fill="#FFF69F" d="M100.791 45.89a65 65 0 0 0-4.378-4.171l-.675-.6a470 470 0 0 0-12.075-10.922c-2.616-2.363-12.44-14.25-15.75-16.847-2.24-1.753-4.631-3.037-7.106-3.806a19 19 0 0 0-1.341-.366l-.431-.112c-2.353-.516-4.64-.432-6.797.262l-.422.131-.46.17-.403.177c-2.09.891-3.88 2.316-5.4 4.37l-.234.337a30 30 0 0 0-.712 1.068c-1.37 2.204-2.335 4.735-2.879 7.529-.712 3.665.094 16.874-.665 23.071a464 464 0 0 0-1.96 16.05l-.112.872a70 70 0 0 0-.6 6.253l-.075.741c-.469 5.363.29 10.744 2.26 16.013C44.268 96 52.04 104.119 61.36 107.83a45 45 0 0 0 5.587 1.819c.6.15 1.19.281 1.772.403 6.44 1.341 12.46.919 18.394-1.294.394-.15 1.387-.553 1.387-.553l1.416-.497c5.934-2.212 10.753-5.831 14.737-11.053a43.6 43.6 0 0 0 4.116-6.506c4.613-8.906 5.166-20.128 1.491-30.028-1.96-5.269-4.913-9.834-8.972-13.772z"/><path fill="#855C52" d="M93.88 68.185c3.6 9.656-1.312 20.409-10.968 24-9.656 3.59-20.41-1.313-24-10.97s2.344-28.096 8.85-30.074c6.694-2.025 22.519 7.387 26.119 17.044"/><path fill="#D7CCC8" d="M78.694 60.712c-.6 2.1 3.337 6.085 3.965 12.225.479 4.641 2.86 6.741 5.7 6.16 2.888-.581 3.994-6.31.779-11.681-3.122-5.232-9.45-10.182-10.444-6.704"/></g><defs><clipPath id="a"><path fill="#fff" d="M0 0h120v120H0z"/></clipPath></defs></svg>
